styles/icons/caret-descending.svg

<svg xmlns="http://www.w3.org/2000/svg" width="24" height="24" viewBox="0 0 24 24">
  <g fill="#333" fill-rule="evenodd">
    <path d="M8.68840409,14.5384247 L11.7797536,17.7055168 C11.8378561,17.7659632 11.9172001,17.8 12.0000059,17.8 C12.0828118,17.8 12.1621558,17.7659632 12.2202583,17.7055168 L15.3116078,14.5384247 C15.3991754,14.4469115 15.4242827,14.3103508 15.3752132,14.1924687 C15.3261437,14.0745867 15.2125699,13.9986201 15.0874913,14.000019 L8.90479239,14.000019 C8.7811187,14.0017989 8.67038563,14.0789348 8.62329225,14.19611 C8.57619887,14.3132852 8.60181177,14.4479407 8.68840409,14.5384247 Z"/>
    <path d="M15.3115959,9.46157511 L12.2202464,6.294483 C12.1621439,6.23403656 12.0827999,6.19999981 11.9999941,6.19999981 C11.9171882,6.19999981 11.8378442,6.23403656 11.7797417,6.294483 L8.68839223,9.46157511 C8.60082456,9.55308823 8.57571729,9.68964901 8.6247868,9.80753104 C8.67385632,9.92541308 8.7874301,10.0013796 8.91250868,9.99998077 L15.0952076,9.99998077 C15.2188813,9.99820084 15.3296144,9.92106497 15.3767078,9.80388977 C15.4238011,9.68671457 15.3981882,9.55205903 15.3115959,9.46157511 Z" opacity=".2"/>
  </g>
</svg>

<svg fill="#333333" height="24" width="24" viewBox="0 0 24 24" xmlns="http://www.w3.org/2000/svg">
    <path d="M8.7,14.5l3.1,3.2c0.1,0.1,0.1,0.1,0.2,0.1s0.2,0,0.2-0.1l3.1-3.2c0.1-0.1,0.1-0.2,0.1-0.3c0-0.1-0.2-0.2-0.3-0.2H8.9c-0.1,0-0.2,0.1-0.3,0.2S8.6,14.4,8.7,14.5z"/>
    <path opacity="0.2" d="M15.3,9.5l-3.1-3.2c-0.1-0.1-0.1-0.1-0.2-0.1s-0.2,0-0.2,0.1L8.7,9.5C8.6,9.6,8.6,9.7,8.6,9.8c0,0.1,0.2,0.2,0.3,0.2h6.2c0.1,0,0.2-0.1,0.3-0.2C15.4,9.7,15.4,9.6,15.3,9.5z"/>
</svg>
